build/images/content.svg

<svg xmlns="http://www.w3.org/2000/svg" viewBox="0 0 156.3 164.8" enable-background="new 0 0 156.3 164.8"><path fill="#33425B" d="M80.3 23.2h-54.9v101.6h14.2v-87.5h54.9l-14.2-14.1zm16.6 40.2v19.7h19.8v46.1h-51v-65.8h31.2m8.9-14.2h-54.2v94.1h79.3v-69l-25.1-25.1z"/></svg>

<?xml version="1.0" encoding="utf-8"?>
<!-- Generator: Adobe Illustrator 18.0.0, SVG Export Plug-In . SVG Version: 6.00 Build 0)  -->
<!DOCTYPE svg PUBLIC "-//W3C//DTD SVG 1.1//EN" "http://www.w3.org/Graphics/SVG/1.1/DTD/svg11.dtd">
<svg version="1.1" id="Layer_1" xmlns="http://www.w3.org/2000/svg" xmlns:xlink="http://www.w3.org/1999/xlink" x="0px" y="0px"
	 viewBox="0 0 156.3 164.8" enable-background="new 0 0 156.3 164.8" xml:space="preserve">
<path id="multi-files-4-icon" fill="#33425B" d="M80.3,23.2H25.4v101.6h14.2V37.3h54.9L80.3,23.2z M96.9,63.4v19.7h19.8v46.1h-51
	V63.4H96.9 M105.8,49.2H51.6v94.1h79.3V74.3L105.8,49.2z"/>
</svg>
